static/img/icons/organic.svg

<svg viewBox="0 0 147 156" xmlns="http://www.w3.org/2000/svg" fill-rule="evenodd" clip-rule="evenodd" stroke-linejoin="round" stroke-miterlimit="1.414"><path d="M32.459 34.971a30.98 30.98 0 0 1 3.603-14.55c10.626.381 19.892 6.111 25.193 14.584a34.845 34.845 0 0 0-4.114 16.48c0 2.241.21 4.433.613 6.556a34.772 34.772 0 0 0-21.669-8.476 30.983 30.983 0 0 1-3.626-14.594zm27.283 30.86c-4.954-6.586-12.464-11.136-21.052-12.174 4.955 6.586 12.464 11.136 21.052 12.174zm-31.17-30.86a34.885 34.885 0 0 0 3.232 14.713c-10.394.924-19.478 6.405-25.246 14.433a31.013 31.013 0 0 1-2.67-12.631c0-16.066 12.168-29.28 27.773-30.916a34.882 34.882 0 0 0-3.09 14.401h.001zm5.269 18.48c-10.63.367-19.903 6.086-25.214 14.552 5.311 8.464 14.584 14.182 25.212 14.55C38.019 75.838 44.41 70.647 51.992 68c-7.58-2.648-13.971-7.838-18.151-14.55v.001zm25.901 16.717c-8.589 1.039-16.098 5.59-21.053 12.178 8.588-1.039 16.1-5.59 21.053-12.178zm-27.94 16.15c-10.392-.922-19.476-6.402-25.244-14.43a31.026 31.026 0 0 0-2.668 12.63c0 16.065 12.168 29.279 27.772 30.914a34.891 34.891 0 0 1-3.09-14.403 34.884 34.884 0 0 1 3.23-14.71v-.001zm4.263 29.265a30.987 30.987 0 0 1-3.606-14.554c0-5.274 1.31-10.24 3.624-14.59a34.768 34.768 0 0 0 21.67-8.48 35.281 35.281 0 0 0-.612 6.558c0 5.96 1.489 11.571 4.115 16.483-5.3 8.471-14.566 14.201-25.191 14.583zm-2.247 3.888C15.04 118.882.002 103.455.002 84.517a34.853 34.853 0 0 1 4.132-16.514A34.855 34.855 0 0 1 0 51.486C0 32.548 15.038 17.12 33.816 16.532 39.98 6.608 50.968 0 63.501 0c12.533 0 23.522 6.608 29.685 16.532C111.965 17.122 127 32.548 127 51.486A34.865 34.865 0 0 1 122.867 68 34.854 34.854 0 0 1 127 84.517c0 18.938-15.036 34.365-33.815 34.954C87.022 129.393 76.033 136 63.5 136c-12.531 0-23.52-6.607-29.683-16.529h.001zm54.785-.152c-5.645 7.756-14.787 12.795-25.102 12.795-10.316 0-19.457-5.039-25.103-12.795 10.371-1.023 19.408-6.586 25.103-14.676 5.696 8.09 14.732 13.653 25.102 14.676zm6.737-3.887c15.604-1.635 27.772-14.849 27.772-30.915 0-4.497-.953-8.77-2.669-12.63-5.767 8.028-14.851 13.508-25.244 14.432a34.871 34.871 0 0 1 3.232 14.71 34.876 34.876 0 0 1-3.091 14.403zm-4.421-28.993a30.99 30.99 0 0 1 3.624 14.59 30.987 30.987 0 0 1-3.606 14.554c-10.624-.382-19.89-6.112-25.19-14.583a34.857 34.857 0 0 0 4.114-16.483c0-2.24-.21-4.432-.613-6.556a34.774 34.774 0 0 0 21.67 8.478h.001zm-23.661-16.27c4.954 6.588 12.466 11.14 21.056 12.177-4.956-6.589-12.466-11.14-21.056-12.178v.001zm25.905 12.383C88.983 75.84 82.593 70.648 75.011 68c7.58-2.648 13.971-7.838 18.151-14.55 10.628.368 19.9 6.087 25.212 14.551-5.311 8.465-14.583 14.183-25.21 14.551h-.001zm-32.135 1.965c0 4.323.881 8.439 2.473 12.179a31.02 31.02 0 0 0 2.473-12.179c0-4.322-.881-8.439-2.473-12.178a31.037 31.037 0 0 0-2.473 12.178zm62.084-33.031c0-16.065-12.168-29.279-27.771-30.915a34.893 34.893 0 0 1 3.09 14.4c0 5.256-1.159 10.24-3.233 14.713 10.394.924 19.477 6.404 25.245 14.431a31.01 31.01 0 0 0 2.669-12.63v.001zm-34.8 2.171c-4.955 6.586-12.463 11.136-21.051 12.174 4.954-6.586 12.463-11.136 21.05-12.174h.001zm2.605-4.092a34.767 34.767 0 0 0-21.67 8.479c.401-2.124.612-4.317.612-6.558 0-5.96-1.488-11.57-4.114-16.481 5.3-8.473 14.569-14.204 25.194-14.585a30.985 30.985 0 0 1 3.604 14.551 30.983 30.983 0 0 1-3.626 14.594zM63.5 31.36c-5.695-8.09-14.733-13.654-25.105-14.677C44.04 8.927 53.185 3.886 63.502 3.886c10.316 0 19.46 5.04 25.105 12.798-10.372 1.022-19.41 6.586-25.106 14.677l-.001-.001zm-2.472 20.125c0-4.322.881-8.437 2.472-12.177a31.03 31.03 0 0 1 2.472 12.177c0 4.322-.881 8.437-2.472 12.176a31.04 31.04 0 0 1-2.472-12.176z" fill="url(#a)" transform="translate(10 6)"/><defs><linearGradient id="a" x2="1" gradientUnits="userSpaceOnUse" gradientTransform="rotate(90 122.922 93.248) scale(326.992)"><stop offset="0" stop-color="#d90754"/><stop offset=".98" stop-color="#972874"/><stop offset="1" stop-color="#972874"/></linearGradient></defs></svg>

<?xml version="1.0" encoding="UTF-8" standalone="no"?>
<!DOCTYPE svg PUBLIC "-//W3C//DTD SVG 1.1//EN" "http://www.w3.org/Graphics/SVG/1.1/DTD/svg11.dtd">
<svg width="100%" height="100%" viewBox="0 0 147 156" version="1.1" xmlns="http://www.w3.org/2000/svg" xmlns:xlink="http://www.w3.org/1999/xlink" xml:space="preserve" style="fill-rule:evenodd;clip-rule:evenodd;stroke-linejoin:round;stroke-miterlimit:1.41421;">
    <g id="b" transform="matrix(1,0,0,1,10,6)">
        <path d="M32.459,34.971C32.451,29.899 33.688,24.903 36.062,20.421C46.688,20.802 55.954,26.532 61.255,35.005C58.545,40.075 57.132,45.737 57.141,51.485C57.141,53.726 57.351,55.918 57.754,58.041C51.72,52.812 44.065,49.817 36.085,49.565C33.696,45.072 32.451,40.059 32.459,34.971L32.459,34.971ZM59.742,65.831C54.788,59.245 47.278,54.695 38.69,53.657C43.645,60.243 51.154,64.793 59.742,65.831ZM28.572,34.971C28.565,40.052 29.668,45.074 31.804,49.684C21.41,50.608 12.326,56.089 6.558,64.117C4.792,60.141 3.882,55.837 3.888,51.486C3.888,35.42 16.056,22.206 31.661,20.57C29.618,25.095 28.564,30.006 28.571,34.971L28.572,34.971ZM33.841,53.451C23.211,53.818 13.938,59.537 8.627,68.003C13.938,76.467 23.211,82.185 33.839,82.553C38.019,75.838 44.41,70.647 51.992,68C44.412,65.352 38.021,60.162 33.841,53.45L33.841,53.451ZM59.742,70.168C51.153,71.207 43.644,75.758 38.689,82.346C47.277,81.307 54.789,76.756 59.742,70.168ZM31.802,86.318C21.41,85.396 12.326,79.916 6.558,71.888C4.793,75.864 3.884,80.168 3.89,84.518C3.89,100.583 16.058,113.797 31.662,115.432C29.619,110.906 28.565,105.995 28.572,101.029C28.565,95.949 29.667,90.928 31.802,86.319L31.802,86.318ZM36.065,115.583C33.69,111.1 32.451,106.102 32.459,101.029C32.459,95.755 33.769,90.789 36.083,86.439C44.064,86.186 51.72,83.19 57.753,77.959C57.345,80.121 57.14,82.317 57.141,84.517C57.141,90.477 58.63,96.088 61.256,101C55.956,109.471 46.69,115.201 36.065,115.583L36.065,115.583ZM33.818,119.471C15.04,118.882 0.002,103.455 0.002,84.517C-0.007,78.756 1.413,73.081 4.134,68.003C1.412,62.924 -0.009,57.248 0,51.486C0,32.548 15.038,17.12 33.816,16.532C39.98,6.608 50.968,0 63.501,0C76.034,0 87.023,6.608 93.186,16.532C111.965,17.122 127,32.548 127,51.486C127.008,57.247 125.588,62.922 122.867,68C125.589,73.079 127.009,78.755 127,84.517C127,103.455 111.964,118.882 93.185,119.471C87.022,129.393 76.033,136 63.5,136C50.969,136 39.98,129.393 33.817,119.471L33.818,119.471ZM88.603,119.319C82.958,127.075 73.816,132.114 63.501,132.114C53.185,132.114 44.044,127.075 38.398,119.319C48.769,118.296 57.806,112.733 63.501,104.643C69.197,112.733 78.233,118.296 88.603,119.319L88.603,119.319ZM95.34,115.432C110.944,113.797 123.112,100.583 123.112,84.517C123.112,80.02 122.159,75.747 120.443,71.887C114.676,79.915 105.592,85.395 95.199,86.319C97.335,90.928 98.438,95.949 98.431,101.029C98.438,105.995 97.384,110.906 95.34,115.432L95.34,115.432ZM90.919,86.439C93.306,90.931 94.551,95.942 94.543,101.029C94.551,106.102 93.312,111.1 90.937,115.583C80.313,115.201 71.047,109.471 65.747,101C68.457,95.929 69.87,90.266 69.861,84.517C69.861,82.277 69.651,80.085 69.248,77.961C75.282,83.191 82.937,86.186 90.918,86.439L90.919,86.439ZM67.258,70.169C72.212,76.757 79.724,81.309 88.314,82.346C83.358,75.757 75.848,71.206 67.258,70.168L67.258,70.169ZM93.163,82.552C88.983,75.84 82.593,70.648 75.011,68C82.591,65.352 88.982,60.162 93.162,53.45C103.79,53.818 113.062,59.537 118.374,68.001C113.063,76.466 103.791,82.184 93.164,82.552L93.163,82.552ZM61.028,84.517C61.028,88.84 61.909,92.956 63.501,96.696C65.138,92.845 65.98,88.702 65.974,84.517C65.974,80.195 65.093,76.078 63.501,72.339C61.864,76.19 61.023,80.333 61.028,84.517L61.028,84.517ZM123.112,51.486C123.112,35.421 110.944,22.207 95.341,20.571C97.384,25.096 98.437,30.006 98.431,34.971C98.431,40.227 97.272,45.211 95.198,49.684C105.592,50.608 114.675,56.088 120.443,64.115C122.209,60.139 123.118,55.835 123.112,51.485L123.112,51.486ZM88.312,53.657C83.357,60.243 75.849,64.793 67.261,65.831C72.215,59.245 79.724,54.695 88.311,53.657L88.312,53.657ZM90.917,49.565C82.936,49.818 75.28,52.813 69.247,58.044C69.648,55.92 69.859,53.727 69.859,51.486C69.859,45.526 68.371,39.916 65.745,35.005C71.045,26.532 80.314,20.801 90.939,20.42C93.313,24.902 94.551,29.899 94.543,34.971C94.551,40.059 93.306,45.072 90.917,49.565L90.917,49.565ZM63.5,31.36C57.805,23.27 48.767,17.706 38.395,16.683C44.04,8.927 53.185,3.886 63.502,3.886C73.818,3.886 82.962,8.926 88.607,16.684C78.235,17.706 69.197,23.27 63.501,31.361L63.5,31.36ZM61.028,51.485C61.028,47.163 61.909,43.048 63.5,39.308C65.137,43.159 65.977,47.301 65.972,51.485C65.972,55.807 65.091,59.922 63.5,63.661C61.864,59.811 61.023,55.669 61.028,51.485L61.028,51.485Z" style="fill:url(#_Linear1);"/>
    </g>
    <defs>
        <linearGradient id="_Linear1" x1="0" y1="0" x2="1" y2="0" gradientUnits="userSpaceOnUse" gradientTransform="matrix(2.00225e-14,326.992,-326.992,2.00225e-14,216.17,-29.6731)"><stop offset="0" style="stop-color:rgb(217,7,84);stop-opacity:1"/><stop offset="0.98" style="stop-color:rgb(151,40,116);stop-opacity:1"/><stop offset="1" style="stop-color:rgb(151,40,116);stop-opacity:1"/></linearGradient>
    </defs>
</svg>
